X:1
T: Miss Ann Monro
C:
R:Jig
Q:180
K:Bm
M:6/8
L:1/16
F2|B6f6|e3dc2 d2c2B2|A2c2d2 e2d2c2|a2e2d2 c2B2A2|B6f6|e3dc2 d2c2B2|e2f2d2 e2d2c2|d2B2B2 B4A2|
B6f6|e3dc2 d2c2B2|A2c2d2 e2d2c2|a2e2d2 c2B2A2|B6f6|e3dc2 d2c2B2|e2f2d2 e2d2c2|d2B2B2 B4c2|
d2f2B2 d2b2B2|d2c2B2 f2d2B2|c2e2A2 c2a2A2|c2B2A2 e2c2A2|d2f2B2 d2b2B2|d2c2B2 f2d2B2|e2f2d2 e2d2c2|d2B2B2 B4c2|
d2f2B2 d2b2B2|d2c2B2 f2d2B2|c2e2A2 c2a2A2|c2B2A2 e2c2A2|B2d2B2 c2e2c2|d2f2d2 e2g2e2|f2g2f2 e2d2c2|d2B2B2 B4||
